SVG-Logos/Software/glitch-icon.svg

<?xml version="1.0" encoding="UTF-8" standalone="no"?>
<!-- Created with Inkscape (http://www.inkscape.org/) -->

<svg
   width="14mm"
   height="14mm"
   viewBox="0 0 14 14"
   version="1.1"
   id="svg5"
   inkscape:version="1.1.2 (0a00cf5339, 2022-02-04)"
   sodipodi:docname="glitch.svg"
   xmlns:inkscape="http://www.inkscape.org/namespaces/inkscape"
   xmlns:sodipodi="http://sodipodi.sourceforge.net/DTD/sodipodi-0.dtd"
   xmlns="http://www.w3.org/2000/svg"
   xmlns:svg="http://www.w3.org/2000/svg">
  <sodipodi:namedview
     id="namedview7"
     pagecolor="#ffffff"
     bordercolor="#999999"
     borderopacity="1"
     inkscape:pageshadow="0"
     inkscape:pageopacity="0"
     inkscape:pagecheckerboard="0"
     inkscape:document-units="mm"
     showgrid="false"
     width="14mm"
     inkscape:showpageshadow="false"
     showborder="false"
     inkscape:zoom="3.9838945"
     inkscape:cx="42.546307"
     inkscape:cy="27.987689"
     inkscape:window-width="1360"
     inkscape:window-height="744"
     inkscape:window-x="0"
     inkscape:window-y="16"
     inkscape:window-maximized="0"
     inkscape:current-layer="layer1" />
  <defs
     id="defs2" />
  <g
     inkscape:label="Слой 1"
     inkscape:groupmode="layer"
     id="layer1">
    <path
       id="path4190-6-3"
       style="fill:#000000;fill-opacity:1;stroke:#fa0000;stroke-width:0;stroke-linecap:round;stroke-linejoin:round;stroke-miterlimit:4;stroke-dasharray:none"
       d="M 3.5182422,7.9295435 A 0.38437698,0.38436288 0 0 0 3.1407558,8.3184087 0.38437698,0.38436288 0 0 0 3.5273848,8.6981975 0.38437698,0.38436288 0 0 0 3.9094747,8.3138377 l -1.909e-4,-0.00914 A 0.38437698,0.38436288 0 0 0 3.5181487,7.9295435 Z m -0.172284,0.383801 a 0.13045441,0.13045428 0 0 1 0.1327576,0.1273307 v 0.00309 A 0.13045441,0.13045428 0 0 1 3.3490179,8.5742231 0.13045441,0.13045428 0 0 1 3.217806,8.4453136 0.13045441,0.13045428 0 0 1 3.3459264,8.3133465 Z" />
    <path
       id="path951"
       style="fill:#ff7698;fill-opacity:1;stroke:#000000;stroke-width:0;stroke-linecap:butt;stroke-linejoin:miter;stroke-miterlimit:4;stroke-dasharray:none;stroke-opacity:1"
       d="m 5.7578857,2.9760012 c -0.025194,2.864e-4 -0.05131,0.00424 -0.07899,0.014371 L 5.5540973,3.0781092 C 5.3112355,3.2558934 5.1820797,3.4273163 5.041486,3.5993693 5.0055741,3.6411307 5.0071135,3.6523447 4.898896,3.6567866 4.3778543,3.7004646 3.8999528,3.595013 3.1865409,3.98807 2.8742728,4.1522486 2.6135266,4.3401913 2.3747757,4.5382689 2.1942114,4.7156368 1.8294669,4.9639007 1.8251027,5.5699372 l 0.495675,0.1963891 c 0.054925,0.026692 0.1103086,0.045297 0.1625184,0.123286 l 5.6587526,0.00635 0.00513,-0.3023775 3.8717823,0.012628 -0.04956,-0.1692921 C 11.907642,5.2593551 11.887286,5.0831854 12.005938,4.9116778 12.105293,4.7624506 12.15465,4.59005 12.173125,4.4054789 l -0.0083,-0.3704166 c 0.0053,-0.068793 -0.01025,-0.1173775 -0.123481,-0.071196 l -1.480682,0.5272452 c -0.17119,0.043151 -0.219135,0.015333 -0.300733,0.0024 L 9.8926162,4.399165 9.3253165,4.2043871 C 9.0625111,4.1447167 8.821104,4.0793506 8.5261463,4.0282552 L 8.3552088,3.9821504 C 8.2848448,3.9494992 8.2108943,3.8935555 8.1323798,3.8077941 8.0391646,3.6601686 7.9280173,3.5372403 7.7612073,3.4909142 7.2567466,3.3313676 6.9188038,3.18022 5.8790341,2.9936273 5.8392849,2.9852495 5.7998743,2.9755227 5.7578857,2.9760012 Z M 3.6159546,4.5463586 A 0.49954503,0.4995445 0 0 1 4.124257,5.0339774 l 1.909e-4,0.011872 A 0.49954503,0.4995445 0 0 1 3.6278838,5.5453721 0.49954503,0.4995445 0 0 1 3.1254022,5.0517682 0.49954503,0.4995445 0 0 1 3.6160137,4.5463586 Z" />
    <path
       id="path5858-9-2"
       style="fill:#2800ff;fill-opacity:1;stroke:#000000;stroke-width:0;stroke-linecap:butt;stroke-linejoin:miter;stroke-miterlimit:4;stroke-dasharray:none;stroke-opacity:1"
       d="m 5.031651,4.3559246 c -0.048058,-8.591e-4 -0.078715,0.018685 -0.099345,0.050051 -0.021828,0.054985 -0.00869,0.099896 0.018777,0.1374264 0.2316096,0.4222848 0.3678894,0.7365613 0.1030298,1.3490742 0.00846,9e-7 0.2368374,1.336e-4 0.2368374,1.336e-4 l -0.067611,0.14328 C 5.457006,5.5967575 5.488338,5.0851752 5.1389222,4.4400136 5.1134358,4.4084436 5.0985736,4.3690332 5.031651,4.3559267 Z m -0.0023,1.5921602 c -6.364e-4,0.00133 -0.0012,0.00264 -0.00181,0.00398 -9.418e-4,0.00212 -0.00178,0.00423 -0.00263,0.00635 z m -0.012266,0.034233 c -0.00859,0.033959 -0.00644,0.065533 0.00112,0.086323 2.545e-4,5.282e-4 5.091e-4,9.984e-4 7.573e-4,0.00151 -0.010046,-0.032089 -0.0074,-0.056047 -0.00187,-0.087836 z m 0.011738,0.1036535 c 0.014078,0.017542 0.032885,0.025307 0.048341,0.030583 0.014855,0.00337 0.028458,0.00475 0.040943,0.00441 -0.039227,-0.00439 -0.066576,-0.00929 -0.089284,-0.03499 z" />
    <path
       id="path7337-3-5-9"
       style="fill:#2800ff;fill-opacity:1;stroke:#000000;stroke-width:0;stroke-linecap:butt;stroke-linejoin:miter;stroke-miterlimit:4;stroke-dasharray:none;stroke-opacity:1"
       d="m 5.6104275,4.2308978 c -0.035771,3.818e-4 -0.068948,0.00518 -0.08675,0.027525 -0.016763,0.01397 -0.027431,0.031819 -0.031472,0.053866 -0.00437,0.032988 -0.00935,0.06572 0.013483,0.1105265 0.092826,0.197972 0.1450432,0.3858446 0.1914226,0.5722648 0.035493,0.1142271 0.04112,0.2238723 0.025486,0.330264 -0.025677,0.2040327 -0.070529,0.3896513 -0.121345,0.5695682 l 0.2424609,-0.00151 -0.00595,0.022066 c 0.1350367,-0.4570296 0.2243102,-0.7954434 -0.043342,-1.428758 2.1545146,0.079632 3.1697437,0.3196164 4.7005164,1.0586668 0.05393,0.016485 0.107916,0.040271 0.16015,0.027854 0.03154,-0.016255 0.05077,-0.044582 0.06452,-0.1007597 -0.0054,-0.036279 -0.01139,-0.072532 -0.04913,-0.114078 C 8.6846988,4.3672447 7.3933504,4.3328415 5.6466023,4.2314898 5.6345769,4.2311207 5.6223536,4.2307701 5.6104295,4.230898 Z m -0.00937,1.6647373 c -0.031556,0.1116788 -0.065236,0.2213367 -0.098458,0.3314151 0.035179,-0.1086063 0.067966,-0.2190966 0.098458,-0.3314151 z m 0.093853,0.550199 c -0.020661,0.043693 -0.038863,0.063007 -0.063535,0.079286 0.024262,-0.013624 0.045711,-0.038901 0.063535,-0.079286 z" />
    <path
       id="path4190-6"
       style="fill:#000000;fill-opacity:1;stroke:#fa0000;stroke-width:0;stroke-linecap:round;stroke-linejoin:round;stroke-miterlimit:4;stroke-dasharray:none"
       d="M 3.5097678,4.6738538 A 0.38437698,0.38436288 0 0 0 3.1322813,5.0627189 0.38437698,0.38436288 0 0 0 3.5189104,5.4425078 0.38437698,0.38436288 0 0 0 3.9010003,5.058148 L 3.9008094,5.049008 A 0.38437698,0.38436288 0 0 0 3.5096748,4.6738538 Z m -0.172284,0.3838009 a 0.13045441,0.13045428 0 0 1 0.1327575,0.1273307 v 0.00309 A 0.13045441,0.13045428 0 0 1 3.3405434,5.318531 0.13045441,0.13045428 0 0 1 3.2093316,5.1896218 0.13045441,0.13045428 0 0 1 3.3374519,5.0576543 Z" />
    <path
       id="path4413"
       style="fill:#fec1ee;fill-opacity:1;stroke:#000000;stroke-width:0;stroke-linecap:butt;stroke-linejoin:miter;stroke-miterlimit:4;stroke-dasharray:none;stroke-opacity:1"
       d="M 8.1471763,5.5935865 8.1420462,5.8959641 5.843714,5.8933991 C 5.7957619,6.0561978 5.7415329,6.233068 5.6949412,6.4440255 c -0.023247,0.052674 -0.05265,0.079867 -0.086454,0.088658 -0.052648,0.00817 -0.097509,0.00425 -0.1314743,-0.041303 -0.031906,-0.08258 -0.014352,-0.1199902 -0.00756,-0.1548883 0.043362,-0.1483383 0.089592,-0.2939435 0.1318026,-0.4433885 L 5.2909525,5.892742 c -0.024547,0.059304 -0.052751,0.1173008 -0.084416,0.1740603 -0.026037,0.043887 -0.066722,0.06397 -0.129336,0.049755 -0.019822,-0.00677 -0.045224,-0.017541 -0.058996,-0.047913 -0.00977,-0.026887 -0.010548,-0.071798 0.00934,-0.1166102 0.00943,-0.020485 0.017144,-0.03971 0.025715,-0.059555 L 2.4832942,5.8896174 C 2.3918148,6.0470143 2.0458625,6.1269686 1.926617,6.1612144 2.3284432,6.6220633 2.9775614,6.8608672 3.603653,7.035528 l 2.3087244,0.014733 7.577e-4,-0.2955046 3.6840412,-7.24e-4 9.53e-4,0.067546 0.7253777,-0.2469992 c 0.04638,-0.00837 0.09603,-0.011553 0.156795,0.00286 0.537913,0.1553694 1.013895,0.3305226 1.51955,0.4918281 0.06632,-3.805e-4 0.143438,0.014123 0.136506,-0.1237793 -0.07,-0.1682334 -0.14791,-0.334929 -0.186754,-0.509257 -0.01389,-0.099818 8.4e-5,-0.1981413 0.02516,-0.2958664 0.06623,-0.1645037 0.09275,-0.3394555 0.0442,-0.534151 z" />
    <path
       style="fill:#5a78ff;fill-opacity:1;stroke:#000000;stroke-width:0;stroke-linecap:butt;stroke-linejoin:miter;stroke-miterlimit:4;stroke-dasharray:none;stroke-opacity:1"
       d="m 5.0532568,5.8924889 c 0.00688,0 0.2376927,1.209e-4 0.2376927,1.209e-4 l -0.083557,0.1770615 c -0.021739,0.028057 -0.0365,0.045412 -0.082313,0.052084 -0.047899,-0.00519 -0.078672,-0.00942 -0.1042529,-0.045936 -0.013375,-0.038336 -0.009,-0.064326 -0.00204,-0.1031731 z"
       id="path17145-9-7"
       sodipodi:nodetypes="ccccccc" />
    <path
       style="fill:#5a78ff;fill-opacity:1;stroke:#000000;stroke-width:0;stroke-linecap:butt;stroke-linejoin:miter;stroke-miterlimit:4;stroke-dasharray:none;stroke-opacity:1"
       d="M 5.6012442,5.8931155 5.8437057,5.891608 5.6949093,6.4440255 c -0.024722,0.052281 -0.045904,0.069696 -0.078886,0.088718 C 5.5504023,6.5445815 5.500363,6.5346635 5.474085,6.4915545 5.446084,6.4388885 5.457953,6.3982925 5.459284,6.3545064 5.511307,6.2044336 5.55852,6.050553 5.6012434,5.8931163 Z"
       id="path15163-2-6-1"
       sodipodi:nodetypes="cccccccc" />
    <path
       id="path10702"
       style="fill:#2800ff;fill-opacity:1;stroke:#000000;stroke-width:0;stroke-linecap:butt;stroke-linejoin:miter;stroke-miterlimit:4;stroke-dasharray:none;stroke-opacity:1"
       d="M 9.5971768,6.7540273 5.9131355,6.7547515 5.9123783,7.0502561 3.6036543,7.0355236 C 3.0635986,7.2446334 2.5641569,7.5726165 2.1068927,8.0242113 c -0.079222,0.1314446 -0.2741689,0.310733 -0.279851,0.7905881 0.2035269,0.074436 0.4178516,0.1291771 0.5939697,0.2537408 0.020115,0.01863 0.041887,0.024695 0.056792,0.082706 l 4.2572273,0.010194 -0.0024,-0.3127034 5.2904723,0.00549 -0.07406,-0.2722221 c -0.02263,-0.127986 -0.03863,-0.2561428 0.0388,-0.3868919 0.08681,-0.1609676 0.164879,-0.3313921 0.187048,-0.5622349 l -0.003,-0.3398007 c -0.0039,-0.044847 -0.0066,-0.075558 -0.02046,-0.093163 -0.01479,-0.012209 -0.03185,-0.017824 -0.04985,-0.020783 -0.01319,-0.0013 -0.03033,7.643e-4 -0.04765,0.00299 l -0.101482,0.0318 -0.999311,0.3830774 -0.407609,0.1249629 c -0.0966,0.024212 -0.18568,0.017909 -0.272452,0.00224 -0.172091,-0.036138 -0.3419805,-0.075189 -0.5072186,-0.13986 L 9.3481053,7.4404697 C 9.0404604,7.3607189 8.7228399,7.2946303 8.4022667,7.2325709 8.3511908,7.2062922 8.3014692,7.1779743 8.2583632,7.1398352 8.7115069,7.0569531 9.1580076,6.9506045 9.5981294,6.8215741 Z M 3.6217754,7.8078271 a 0.49954503,0.49953631 0 0 1 0.5083024,0.4875861 l 1.909e-4,0.011871 A 0.49954503,0.49953631 0 0 1 3.6337053,8.8068077 0.49954503,0.49953631 0 0 1 3.131223,8.3132367 0.49954503,0.49953631 0 0 1 3.6218352,7.8078271 Z" />
    <path
       id="path5858-2-2"
       style="fill:#ff7698;fill-opacity:1;stroke:#000000;stroke-width:0;stroke-linecap:butt;stroke-linejoin:miter;stroke-miterlimit:4;stroke-dasharray:none;stroke-opacity:1"
       d="m 5.025962,7.6074968 c -0.048058,-8.587e-4 -0.078747,0.018685 -0.099378,0.050051 -0.021829,0.054985 -0.00865,0.099896 0.01881,0.1374264 0.2390029,0.4357671 0.3764948,0.7564804 0.076424,1.408629 -0.00444,0.010017 -0.00782,0.020036 -0.010326,0.02986 L 5.0452,9.1582882 c 0.00678,0 0.234174,1.011e-4 0.234174,1.011e-4 C 5.4537697,8.7484504 5.4489357,8.2745621 5.133201,7.6915861 5.107713,7.6600161 5.0928845,7.6206057 5.025962,7.6074991 Z m 0.2534121,1.5508895 -0.079121,0.1608405 c 1.684e-4,-2.947e-4 3.873e-4,-5.573e-4 5.557e-4,-8.554e-4 0.029159,-0.052266 0.055413,-0.1055711 0.078562,-0.1599854 z m -0.2683752,0.076984 c -0.00218,0.00892 -0.00361,0.017662 -0.00441,0.026078 0.00113,-0.00816 0.00267,-0.016762 0.00441,-0.026078 z" />
    <path
       style="fill:#fec1ee;fill-opacity:1;stroke:#000000;stroke-width:0;stroke-linecap:butt;stroke-linejoin:miter;stroke-miterlimit:4;stroke-dasharray:none;stroke-opacity:1"
       d="m 5.0451967,9.1582897 c 0.00688,0 0.2376926,1.21e-4 0.2376926,1.21e-4 l -0.083557,0.1770614 c -0.021739,0.028057 -0.0365,0.045412 -0.082313,0.052084 -0.047899,-0.00519 -0.078672,-0.00942 -0.1042529,-0.045936 -0.013375,-0.038336 -0.009,-0.064326 -0.00204,-0.1031731 z"
       id="path17145-9-0"
       sodipodi:nodetypes="ccccccc" />
    <path
       id="path7337-9-7"
       style="fill:#ff7698;fill-opacity:1;stroke:#000000;stroke-width:0;stroke-linecap:butt;stroke-linejoin:miter;stroke-miterlimit:4;stroke-dasharray:none;stroke-opacity:1"
       d="m 5.604706,7.4806594 c -0.035772,3.822e-4 -0.068948,0.00518 -0.086752,0.027525 -0.016761,0.01397 -0.027397,0.031819 -0.031438,0.053866 -0.00436,0.032988 -0.00935,0.06572 0.013483,0.1105266 0.092826,0.197972 0.1450434,0.3858445 0.1914246,0.5722647 0.035491,0.1142273 0.041118,0.2238723 0.025485,0.330264 -0.044591,0.3543367 -0.1463196,0.6538504 -0.238252,0.9627742 0.039003,-0.1151003 0.069194,-0.2176786 0.104673,-0.345457 l 0.012234,-0.033115 0.2615006,1.01e-4 -0.055214,0.1770528 C 5.9464861,8.8949428 6.0873421,8.3956272 5.788729,7.7364742 c 2.1545148,0.079632 3.1697114,0.3196163 4.700484,1.0586667 0.05393,0.016485 0.107915,0.040271 0.16015,0.027854 0.03155,-0.016255 0.0508,-0.044615 0.06455,-0.1007926 -0.0054,-0.036279 -0.01139,-0.072499 -0.04913,-0.1140452 C 8.6790077,7.6170084 7.3876262,7.5826055 5.6408789,7.4812536 5.6288521,7.4808832 5.6166284,7.4805346 5.604706,7.4806609 Z m 0.047058,2.2736688 c -0.00278,0.00281 -0.00558,0.00548 -0.00848,0.00796 0.00287,-0.00248 0.00571,-0.00507 0.00848,-0.00796 z m -0.00848,0.00796 c -0.00307,0.00261 -0.00625,0.00505 -0.0095,0.0074 0.00323,-0.00223 0.00639,-0.0047 0.0095,-0.0074 z" />
    <path
       id="path12476"
       style="fill:#5a78ff;fill-opacity:1;stroke:#000000;stroke-width:0;stroke-linecap:butt;stroke-linejoin:miter;stroke-miterlimit:4;stroke-dasharray:none;stroke-opacity:1"
       d="m 6.7326279,8.8487412 0.0024,0.3127034 L 2.477802,9.1512502 C 2.2930297,9.3072886 2.0851469,9.3477647 1.9018546,9.3859834 c 0.5653029,0.5362655 1.1745087,0.7272346 1.6858823,0.8783916 0.3047653,0.01245 0.6104887,0.02359 0.9847745,-0.05939 0.07181,0.183192 0.2080125,0.343099 0.3499949,0.500938 0.2155084,0.210699 0.507917,0.291302 0.8336681,0.315531 0.2945048,0.0085 0.5906774,-0.0024 0.8904592,-0.05617 0.00212,-0.153797 -0.00403,-0.306937 -0.100365,-0.453024 l 0.3952448,-9.21e-4 c 0.2800281,-0.0096 0.5413333,-0.02665 0.7716466,-0.0561 0.5564134,-0.05492 1.1353989,-0.177449 1.733204,-0.356276 0.2979389,-0.09454 0.658369,-0.2181821 0.869183,-0.2721235 0.05161,-0.012494 0.101905,-0.010355 0.151732,-0.00276 l 0.197606,0.047058 c 0.257366,0.075655 0.503166,0.1603635 0.735374,0.2557135 l 0.618468,0.179125 c 0.03508,0.0027 0.06488,0.0075 0.113125,-0.02506 0.0172,-0.03405 0.01851,-0.06716 0.01167,-0.10418 L 12.012578,9.8623224 c -0.07171,-0.1720491 -0.101804,-0.3555741 8.21e-4,-0.5757177 0.05352,-0.158681 0.05166,-0.3013287 0.0097,-0.4323719 z M 5.0452001,9.1582876 c 0.00688,0 0.237693,1.347e-4 0.237693,1.347e-4 l -0.083561,0.177053 c -0.021738,0.028057 -0.036498,0.045418 -0.082312,0.05209 -0.047898,-0.00519 -0.078665,-0.00943 -0.1042453,-0.04594 -0.013375,-0.038336 -0.00901,-0.064346 -0.00204,-0.103193 z m 0.5503297,0.00102 0.2615024,1.347e-4 L 5.6891863,9.697704 C 5.6644663,9.748797 5.6433103,9.765832 5.6103283,9.784422 5.5447073,9.795991 5.4946422,9.786292 5.4683645,9.744171 5.4403625,9.692701 5.4522345,9.653021 5.4535665,9.6102304 5.5055895,9.4635658 5.5406075,9.3462877 5.5833302,9.1924264 Z" />
    <path
       style="fill:#fec1ee;fill-opacity:1;stroke:#000000;stroke-width:0;stroke-linecap:butt;stroke-linejoin:miter;stroke-miterlimit:4;stroke-dasharray:none;stroke-opacity:1"
       d="m 5.5955366,9.1592963 0.2615073,1.273e-4 -0.1678422,0.5382815 c -0.024721,0.051094 -0.045904,0.068112 -0.078886,0.086703 -0.065621,0.011569 -0.1156604,0.00187 -0.1419384,-0.040253 -0.028001,-0.05147 -0.016132,-0.091144 -0.0148,-0.1339354 C 5.5056,9.4635544 5.5406064,9.3462835 5.5833293,9.1924222 Z"
       id="path15163-2-6-8-7"
       sodipodi:nodetypes="cccccccc" />
    <path
       style="fill:#f5f507;fill-opacity:0.35873;stroke:#000000;stroke-width:0;stroke-linecap:butt;stroke-linejoin:miter;stroke-miterlimit:4;stroke-dasharray:none;stroke-opacity:1"
       d="m 6.9054127,6.8808774 c 0.00683,0 0.2358326,1.273e-4 0.2358326,1.273e-4 l -0.082903,0.183995 c -0.021569,0.029156 -0.052653,0.046271 -0.081669,0.054123 -0.054435,-0.00661 -0.07495,-0.021993 -0.1034371,-0.047735 -0.018219,-0.036339 -0.017494,-0.073531 -0.00747,-0.1134649 z"
       id="path17145"
       sodipodi:nodetypes="ccccccc" />
  </g>
</svg>

<svg xmlns="http://www.w3.org/2000/svg" viewBox="0 0 14 14"><path d="M3.518 7.93a.384.384 0 0 0-.377.388.384.384 0 0 0 .386.38.384.384 0 0 0 .382-.384v-.01a.384.384 0 0 0-.39-.374Zm-.172.383a.13.13 0 0 1 .133.128v.003a.13.13 0 0 1-.13.13.13.13 0 0 1-.131-.129.13.13 0 0 1 .128-.132Z" style="fill:#000;fill-opacity:1;stroke:#fa0000;stroke-width:0;stroke-linecap:round;stroke-linejoin:round;stroke-miterlimit:4;stroke-dasharray:none"/><path d="M5.758 2.976a.234.234 0 0 0-.08.014l-.124.088c-.243.178-.372.35-.513.521-.035.042-.034.053-.142.058-.521.043-.999-.062-1.712.331a4.633 4.633 0 0 0-.812.55c-.18.178-.546.426-.55 1.032l.496.196c.055.027.11.046.162.124l5.659.006.005-.302 3.872.012-.05-.17c-.061-.177-.082-.353.037-.524.1-.15.149-.322.167-.507l-.008-.37c.005-.069-.01-.117-.124-.071l-1.48.527c-.172.043-.22.015-.301.003l-.367-.095-.568-.195c-.262-.06-.504-.125-.799-.176l-.17-.046a.724.724 0 0 1-.224-.174c-.093-.148-.204-.27-.37-.317-.505-.16-.843-.31-1.883-.497-.04-.009-.08-.018-.121-.018Zm-2.142 1.57a.5.5 0 0 1 .508.488v.012a.5.5 0 0 1-.496.5.5.5 0 0 1-.503-.494.5.5 0 0 1 .491-.506Z" style="fill:#ff7698;fill-opacity:1;stroke:#000;stroke-width:0;stroke-linecap:butt;stroke-linejoin:miter;stroke-miterlimit:4;stroke-dasharray:none;stroke-opacity:1"/><path d="M5.032 4.356a.108.108 0 0 0-.1.05.134.134 0 0 0 .02.137c.23.423.367.737.102 1.35h.237l-.068.143c.234-.44.265-.95-.084-1.596-.026-.032-.04-.071-.107-.084Zm-.003 1.592-.001.004-.003.006zm-.012.034a.153.153 0 0 0 .001.087l.001.001a.168.168 0 0 1-.002-.088zm.012.104a.1.1 0 0 0 .048.03.165.165 0 0 0 .041.005c-.04-.004-.066-.01-.09-.035zM5.61 4.23c-.035.001-.069.006-.086.028a.089.089 0 0 0-.032.054c-.004.033-.01.066.014.11.093.199.145.387.191.573a.735.735 0 0 1 .026.33 3.82 3.82 0 0 1-.122.57l.243-.002-.006.022c.135-.457.224-.795-.044-1.428 2.155.08 3.17.32 4.7 1.058.055.017.109.04.161.028.032-.016.05-.044.065-.1a.19.19 0 0 0-.05-.115c-1.985-.99-3.277-1.025-5.023-1.127H5.61Zm-.009 1.666c-.031.111-.065.221-.098.331a7.18 7.18 0 0 0 .098-.331zm.094.55a.17.17 0 0 1-.064.08.16.16 0 0 0 .064-.08z" style="fill:#2800ff;fill-opacity:1;stroke:#000;stroke-width:0;stroke-linecap:butt;stroke-linejoin:miter;stroke-miterlimit:4;stroke-dasharray:none;stroke-opacity:1"/><path d="M3.51 4.674a.384.384 0 0 0-.378.389.384.384 0 0 0 .387.38.384.384 0 0 0 .382-.385V5.05a.384.384 0 0 0-.391-.375Zm-.173.384a.13.13 0 0 1 .133.127v.003a.13.13 0 0 1-.13.13.13.13 0 0 1-.13-.128.13.13 0 0 1 .127-.132Z" style="fill:#000;fill-opacity:1;stroke:#fa0000;stroke-width:0;stroke-linecap:round;stroke-linejoin:round;stroke-miterlimit:4;stroke-dasharray:none"/><path d="m8.147 5.594-.005.302-2.298-.003c-.048.163-.102.34-.15.551-.022.053-.052.08-.086.089-.052.008-.097.004-.131-.042-.032-.082-.014-.12-.008-.155.044-.148.09-.293.132-.443h-.31c-.025.059-.053.117-.084.174-.027.044-.067.064-.13.05-.02-.007-.045-.018-.059-.048a.165.165 0 0 1 .01-.117l.025-.06-2.57-.002c-.091.157-.437.237-.556.271.401.461 1.05.7 1.677.875l2.308.014.001-.295 3.684-.001.001.068.726-.247a.367.367 0 0 1 .156.002c.538.156 1.014.331 1.52.492.066 0 .143.014.136-.124-.07-.168-.148-.334-.186-.509a.76.76 0 0 1 .025-.296.84.84 0 0 0 .044-.534z" style="fill:#fec1ee;fill-opacity:1;stroke:#000;stroke-width:0;stroke-linecap:butt;stroke-linejoin:miter;stroke-miterlimit:4;stroke-dasharray:none;stroke-opacity:1"/><path d="M5.053 5.892h.238l-.084.178c-.021.028-.036.045-.082.052-.048-.005-.079-.01-.104-.046a.178.178 0 0 1-.002-.103zM5.601 5.893l.243-.001-.15.552a.17.17 0 0 1-.078.089c-.066.012-.116.002-.142-.041-.028-.053-.016-.094-.015-.137.052-.15.1-.304.142-.462Z" style="fill:#5a78ff;fill-opacity:1;stroke:#000;stroke-width:0;stroke-linecap:butt;stroke-linejoin:miter;stroke-miterlimit:4;stroke-dasharray:none;stroke-opacity:1"/><path d="M9.597 6.754H5.913v.296l-2.31-.014a4.37 4.37 0 0 0-1.496.988c-.08.132-.274.31-.28.79.204.075.418.13.594.255.02.018.042.024.057.082l4.257.01-.002-.312 5.29.005-.074-.272c-.023-.128-.039-.256.039-.387.087-.16.165-.331.187-.562l-.003-.34c-.004-.045-.007-.075-.02-.093a.101.101 0 0 0-.05-.02.233.233 0 0 0-.048.002l-.102.032-.999.383-.407.125a.629.629 0 0 1-.273.002 3.152 3.152 0 0 1-.507-.14l-.418-.144c-.308-.08-.625-.145-.946-.207a.686.686 0 0 1-.144-.093c.454-.083.9-.19 1.34-.318ZM3.622 7.808a.5.5 0 0 1 .508.487v.012a.5.5 0 0 1-.496.5.5.5 0 0 1-.503-.494.5.5 0 0 1 .49-.505Z" style="fill:#2800ff;fill-opacity:1;stroke:#000;stroke-width:0;stroke-linecap:butt;stroke-linejoin:miter;stroke-miterlimit:4;stroke-dasharray:none;stroke-opacity:1"/><path d="M5.026 7.607a.108.108 0 0 0-.1.05.135.135 0 0 0 .02.138c.238.436.376.756.076 1.409a.189.189 0 0 0-.01.03l.033-.076h.234c.175-.41.17-.883-.146-1.466-.025-.032-.04-.071-.107-.085Zm.253 1.551L5.2 9.32c.03-.053.056-.106.08-.16zm-.268.077z" style="fill:#ff7698;fill-opacity:1;stroke:#000;stroke-width:0;stroke-linecap:butt;stroke-linejoin:miter;stroke-miterlimit:4;stroke-dasharray:none;stroke-opacity:1"/><path d="M5.045 9.158h.238l-.084.177c-.021.029-.036.046-.082.053-.048-.006-.079-.01-.104-.046a.178.178 0 0 1-.002-.104z" style="fill:#fec1ee;fill-opacity:1;stroke:#000;stroke-width:0;stroke-linecap:butt;stroke-linejoin:miter;stroke-miterlimit:4;stroke-dasharray:none;stroke-opacity:1"/><path d="M5.605 7.48c-.036.001-.07.006-.087.028a.089.089 0 0 0-.031.054c-.005.033-.01.066.013.11.093.199.145.386.191.573a.735.735 0 0 1 .026.33c-.045.354-.146.654-.238.963a6.16 6.16 0 0 0 .104-.346l.013-.033h.261l-.055.177c.144-.441.285-.94-.013-1.6 2.154.08 3.17.32 4.7 1.06.054.016.108.04.16.027.032-.016.051-.045.065-.1a.19.19 0 0 0-.05-.115C8.68 7.617 7.389 7.583 5.642 7.481h-.036Zm.047 2.274zm-.009.008z" style="fill:#ff7698;fill-opacity:1;stroke:#000;stroke-width:0;stroke-linecap:butt;stroke-linejoin:miter;stroke-miterlimit:4;stroke-dasharray:none;stroke-opacity:1"/><path d="m6.733 8.849.002.312-4.257-.01c-.185.156-.393.197-.576.235.565.536 1.174.727 1.686.878.305.013.61.024.985-.059.071.183.208.343.35.5.215.212.507.292.833.316.295.009.59-.002.89-.056.003-.154-.003-.307-.1-.453h.396c.28-.01.54-.027.771-.057a9.247 9.247 0 0 0 1.733-.356c.298-.095.659-.218.87-.272a.387.387 0 0 1 .151-.003l.198.047c.257.076.503.16.735.256l.619.179c.035.003.065.007.113-.025a.156.156 0 0 0 .012-.104l-.131-.315a.664.664 0 0 1 0-.575.674.674 0 0 0 .01-.433zm-1.688.31h.238l-.084.176c-.021.029-.036.046-.082.053-.048-.006-.079-.01-.104-.046a.178.178 0 0 1-.002-.104zm.55 0h.262l-.168.539a.167.167 0 0 1-.079.086c-.065.012-.115.002-.142-.04-.028-.051-.016-.091-.014-.134.052-.146.087-.264.13-.418Z" style="fill:#5a78ff;fill-opacity:1;stroke:#000;stroke-width:0;stroke-linecap:butt;stroke-linejoin:miter;stroke-miterlimit:4;stroke-dasharray:none;stroke-opacity:1"/><path d="M5.596 9.16h.261l-.168.538a.167.167 0 0 1-.079.086c-.065.012-.115.002-.142-.04-.028-.051-.016-.091-.014-.134.052-.146.087-.264.13-.418Z" style="fill:#fec1ee;fill-opacity:1;stroke:#000;stroke-width:0;stroke-linecap:butt;stroke-linejoin:miter;stroke-miterlimit:4;stroke-dasharray:none;stroke-opacity:1"/><path d="m6.905 6.88.236.001-.083.184a.15.15 0 0 1-.081.054.157.157 0 0 1-.104-.048.157.157 0 0 1-.007-.113z" style="fill:#f5f507;fill-opacity:.35873;stroke:#000;stroke-width:0;stroke-linecap:butt;stroke-linejoin:miter;stroke-miterlimit:4;stroke-dasharray:none;stroke-opacity:1"/></svg>
